!!!COM: Joplin, Scott
!!!CDT: 1868/11/24/-1917/04/01/
!!!OTL: Peacherine Rag
!!!ODT: 1901///
!!!PPR: John Stark & Son, St. Louis, Missouri
!!!PDT: 1901///
!!!ENC: Craig Stuart Sapp
!!!YEC: Copyright 2001 by Craig Stuart Sapp
!!!YEN: United States of America
**kern	**kern
*Ipiano	*Ipiano
*lh	*rh
*clefF4	*clefG2
*k[b-e-a-]	*k[b-e-a-]
*E-:	*E-:
*M2/4	*M2/4
*MM100	*MM100
*>[A,B,B1,B,B2,C,C1,C,C2,D,E,E1,E,E2,F,F1,F,F2]	*>[A,B,B1,B,B2,C,C1,C,C2,D,E,E1,E,E2,F,F1,F,F2]
*>A	*>A
16E-	16ee-
16F	16ff
16G	16gg
[16F	[16ff
8F]	8ff]
8BB-	8b-
=2	=2
16F	16ff
16G	16gg
16A-	16aa-
[16G	[16gg
8G]	8gg]
8BB-	8b-
=3	=3
16C	16cc
8C	8cc
16BBn	16bn
16C	16cc
16D	16dd
8E-	8ee-
=4	=4
8BB-	8b-
4BB-	[8b-
.	16b-]
.	16g
8r	16a-
.	16an
=5!|:	=5!|:
*>B	*>B
8E-	8b-
8G 8B- 8e-	8g 8ee-
8BB-	8g 8dd
8G 8B- 8e-	8g 8cc
=6	=6
8E-	16g 16b-
.	8g 8ee-
8G 8B- 8e-	.
.	[16g [16dd
8BB-	16g] 16dd]
.	16cc
8G 8B- 8e-	16b-
.	16g
=7	=7
8E-	8g 8b-
8G 8B- 8e-	8g 8ee-
8BB-	8g 8dd
8G 8B- 8e-	8g 8cc
=8	=8
8F	16a- 16b-
.	8a- 8dd
8A- 8B- 8d	.
.	[16a- [16cc
8BB-	16a-] 16cc]
.	16b-
8A- 8B- 8d	16f
.	16g
=9	=9
8F	8a-
8A- 8B- 8d	8a- 8dd
8BB-	8a- 8cc
8A- 8B- 8d	8a- 8b-
=10	=10
8F	16a-
.	8a- 8dd
8A- 8B- 8d	.
.	[16a- [16cc
8BB-	16a-] 16]cc
.	16b-
8A- 8B- 8d	16dd
.	16ff
=11	=11
8F	8a- 8dd 8aa-
8B- 8d	4a- 4dd 4aa-
8F#	.
8F# 8c 8e-	8an 8ee- 8aan
=12	=12
*^	*^
8G	4G	[4b- [4ee- [4bb-	8r
8B- 8e-	.	.	16ee-
.	.	.	16ff
*v	*v	*	*
8B- 8e-	16b-] 16ee-] 16bb-]	16gg
.	16g	16r
8r	16a-	8r
.	16an	.
*	*v	*v
=13	=13
8E-	8b-
8G 8B- 8e-	8g 8ee-
8BB-	8g 8dd
8G 8B- 8e-	8g 8cc
=14	=14
8E-	16g 16b-
.	8g 8ee-
8G 8B- 8e-	.
.	[16g [16dd
8BB-	16g] 16dd]
.	16cc
8G 8B- 8e-	16b-
.	16g
=15	=15
8BBn	8g 8gg
8G 8d 8f	4g 4bn 4gg
8GG	.
8G 8d 8f	8g 8b 8gg
=16	=16
*	*^
8C	4.g 4.cc 4.ee-	8r
8G 8c 8e-	.	16ccc
.	.	16ddd
8G 8c 8e-	.	8eee-
8r	8cc	8r
*	*v	*v
=17	=17
4AA- 4A-	8cc 8ee- 8ff
.	8cc 8ee- 8ff
4AAn 4An	8cc 8ee- 8ff#
.	8cc 8ee- 8ff#
=18	=18
8BB- 8B-	16b- 16ee- 16gg
.	8b- 8ee- 8gg
8G 8B- 8e-	.
.	16b- 16bb-
8C	8b- 8cc 8een 8aa-
8G 8B- 8c 8en	8b- 8cc 8ee 8gg
=19	=19
8F 8c 8e-	16an 16gg
.	8a 8gg
8F 8c 8e-	.
.	16a 16ee-
*	*^
8B- 8d	8a-	16ff
.	.	16ee-
*	*v	*v
8B- 8d	8a- 8ff
=20	=20
*>B1	*>B1
8E- 8e-	[4g [4ee-
8G 8B- 8e-	.
8G 8B- 8e-	16g] 16ee-]
.	16g
8r	16a-
.	16an
=21:|!	=21:|!
*>B2	*>B2
8E- 8e-	[4g [4ee-
8BB- 8B-	.
8EE- 8E-	8g] 8ee-]
8FF	8r
=22!|:	=22!|:
*k[b-e-]	*k[b-e-]
*B-:	*B-:
*>C	*>C
8C	8r
8F 8c 8e-	8a 8ee- 8ff
8FF	8a 8ee- 8gg
8F 8c 8e-	8a 8ee- 8ff
=23	=23
8C	8r
8F 8A 8e-	8ee- 8aa 8ccc
8FF	8ee- 8aa 8ddd
8F 8A 8e-	8ee- 8aa 8ccc
=24	=24
8BB-	8r
8F 8B- 8d	8dd 8bb-
8FF	8dd 8aa
8F 8B- 8d	8dd 8gg
=25	=25
8BB-	16dd 16gg
.	16ff
8F 8B- 8d	16een
.	[16ff
8FF	16ff]
.	16gg
8F 8B- 8d	8ff
=26	=26
8C	8r
8F 8c 8e-	8ee- 8aa 8eee-
8FF	8ee- 8aa 8eee-
8F 8A 8e-	8ee- 8aa 8ddd
=27	=27
*	*^
8C	4.ee- 4.aa	16ddd
.	.	16ccc
8F 8A 8e-	.	16bbn
.	.	[16ccc
8FF	.	16ccc]
.	.	16fff
8F 8A 8e-	8r	8ff
*	*v	*v
=28	=28
8BB-	8r
8F 8B- 8d	8dd 8bb- 8ddd
8FF	8dd 8ff 8ddd
8F 8B- 8d	8dd 8ff 8ccc
=29	=29
*	*^
8BB-	4.dd 4.ff	16ccc
.	.	16bb-
8F 8B- 8d	.	16aa
.	.	[16bb-
8FF	.	16bb-]
.	.	16fff
8F 8B- 8d	8r	8ff
*	*v	*v
=30	=30
8C	8r
8F 8c 8e-	8a 8ee- 8ff
8FF	8a 8ee- 8gg
8F 8c 8e-	8a 8ee- 8ff
=31	=31
8C	8r
8F 8A 8e-	8ee- 8aa 8ccc
8FF	8ee- 8aa 8ddd
8F 8A 8e-	8ee- 8aa 8ccc
=32	=32
8BB-	8r
8F 8B- 8d	8dd 8bb-
8FF	8dd 8aa
8F 8B- 8d	8dd 8gg
=33	=33
8BB-	16dd 16gg
.	16ff
8F 8B- 8d	16een
.	[16ff
8FF	16ff]
.	16dd
8F 8B- 8d	16ee-
.	16ff
=34	=34
8EE- 8E-	16g 16gg
.	16b- 16ee-
8EE- 8E-	16g 16gg
.	[16a [16aa
8FF 8F	16a] 16aa]
.	8g 8gg
8EE- 8E-	.
.	16b- 16ee-
=35	=35
8DD 8D	16f 16ff
.	16b- 16dd
8DD 8D	16f 16ff
.	[16g [16gg
8EE- 8E-	16g] 16gg]
.	8f 8ff
8DD 8D	.
.	16b-
=36	=36
8CC 8C	16en 16b- 16dd
.	8e 8b- 8dd
8CC 8C	.
.	16e 16b- 16dd
*	*^
8FF 8F	8e- 8a	16cc
.	.	16b-
*	*v	*v
8FF 8F	8e- 8a 8cc
=37	=37
*>C1	*>C1
8BB- 8B-	[4d [4b-
8F 8B-	.
8F 8B-	8d] 8b-]
8FF	8r
=38:|!	=38:|!
*>C2	*>C2
8BB- 8B-	4d 4b-
8FF 8F	.
4BBB- 4BB-	4d 4a- 4b-
=39	=39
*>D	*>D
*k[b-e-a-]	*k[b-e-a-]
8E-	8b-
8G 8B- 8e-	8g 8ee-
8BB-	8g 8dd
8G 8B- 8e-	8g 8cc
=40	=40
8E-	16g 16b-
.	8g 8ee-
8G 8B- 8e-	.
.	[16g [16dd
8BB-	16g] 16dd]
.	16cc
8G 8B- 8e-	16b-
.	16g
=41	=41
8E-	8g 8b-
8G 8B- 8e-	8g 8ee-
8BB-	8g 8dd
8G 8B- 8e-	8g 8cc
=42	=42
8F	16a- 16b-
.	8a- 8dd
8A- 8B- 8d	.
.	[16a- [16cc
8BB-	16a-] 16cc]
.	16b-
8A- 8B- 8d	16f
.	16g
=43	=43
8F	8a-
8A- 8B- 8d	8a- 8dd
8BB-	8a- 8cc
8A- 8B- 8d	8a- 8b-
=44	=44
8F	16a-
.	8a- 8dd
8A- 8B- 8d	.
.	[16a- [16cc
8BB-	16a-] 16cc]
.	16b-
8A- 8B- 8d	16dd
.	16ff
=45	=45
8F	8a- 8dd 8aa-
8B- 8d	4a- 4dd 4aa-
8F#	.
8F# 8c 8e-	8an 8ee- 8aan
=46	=46
*	*^
8G	[4b- [4ee- [4bb-	8r
8B- 8e-	.	16ee-
.	.	16ff
8B- 8e-	16b-] 16ee-] 16bb-]	16gg
.	16g	16r
8r	16a-	8r
.	16an	.
*	*v	*v
=47	=47
8E-	8b-
8G 8B- 8e-	8g 8ee-
8BB-	8g 8dd
8G 8B- 8e-	8g 8cc
=48	=48
8E-	16g 16b-
.	8g 8ee-
8G 8B- 8e-	.
.	[16g [16dd
8BB-	16g] 16dd]
.	16cc
8G 8B- 8e-	16b-
.	16g
=49	=49
8BBn	8g 8gg
8G 8d 8f	4g 4bn 4gg
8GG	.
8G 8d 8f	8g 8b 8ff
=50	=50
*	*^
8C	4.g 4.cc 4.ee-	8r
8G 8c 8e-	.	16ccc
.	.	16ddd
8G 8c 8e-	.	8eee-
8r	8cc	8r
*	*v	*v
=51	=51
4AA- 4A-	8cc 8ee- 8ff
.	8cc 8ee- 8ff
4AAn 4An	8cc 8ee- 8ff#
.	8cc 8ee- 8ff#
=52	=52
8BB- 8B-	16b- 16ee- 16gg
.	8b- 8ee- 8gg
8G 8B- 8e-	.
.	16b- 16bb-
8C	8b- 8een 8aa-
8G 8c 8en	8b- 8ee 8gg
=53	=53
8F 8c 8e-	16an 16gg
.	8a 8gg
8F 8c 8e-	.
.	16a 16ee-
*	*^
8B- 8d	8a-	16ff
.	.	16ee-
*	*v	*v
8B- 8d	8a- 8ff
=54	=54
8E- 8e-	4g 4ee-
8BB- 8B-	.
8EE- 8E-	8g 8dd- 8ee-
8r	8r
=55!|:	=55!|:
*>E	*>E
*k[b-e-a-d-]	*k[b-e-a-d-]
*A-:	*A-:
8AA- 8A-	16e- 16ee-
.	16cc
8E- 8A- 8c	16e- 16ee-
.	16a-
8AA- 8A-	16cc
.	8e- 8ee-
8E- 8A- 8c	.
.	16a-
=56	=56
8AAn 8An	16e- 16cc
.	16an
8AA 8A	16e- 16cc
.	[16e- [16a [16dd-
8FF 8F	16e-] 16a] 16dd-]
.	8e- 8a 8cc
8FF 8F	.
.	16a
=57	=57
8DDn 8Dn	8dn 8f 8a- 8cc
8DD 8D	16d 16f 16a- 16b-
.	[16d [16f [16a- [16cc
8BBB- 8BB-	16d] 16f] 16a-] 16cc]
.	16b-
8BBB- 8BB-	16a-
.	16f
=58	=58
8FF 8F	8dn 8a- 8cc
8FF 8F	16d 16a- 16b-
.	[16d [16a- [16cc
8BBB- 8BB-	16d] 16a-] 16cc]
.	16b-
8BBB- 8BB-	16a-
.	16f
=59	=59
*	*^
8EE- 8E-	8.e-	4dd-
8E- 8G 8d-	.	.
.	32f	.
.	32g	.
*	*v	*v
8GG 8G	16b-
.	8f 8dd-
8E- 8B- 8d-	.
.	16g
=60	=60
*	*^
8BB- 8B-	8.e-	4dd-
8G 8B- 8d-	.	.
.	32f	.
.	32g	.
*	*v	*v
8EE- 8E-	16b-
.	8f 8dd-
8G 8B- 8d-	.
.	16f
=61	=61
8AA- 8A-	8e- 8cc
8E- 8A- 8c	16en 16cc
.	[16f [16cc
8EE- 8E-	16f] 16cc]
.	8a- 8cc
8E- 8A- 8c	.
.	16f 16cc
=62	=62
8AA- 8A-	8e- 8cc
8E- 8A- 8c	16en 16cc
.	[16f [16cc
8EE- 8E-	8.f] 8.cc]
8E- 8A- 8c	.
.	32a-
.	32cc
=63	=63
8AA- 8A-	16e- 16ee-
.	16cc
8E- 8A- 8c	16e- 16ee-
.	16a-
8EE- 8E-	16cc
.	8e- 8ee-
8E- 8A- 8c	.
.	16a-
=64	=64
8AAn 8An	16e- 16cc
.	16an
8AA 8A	16e- 16cc
.	[16e- [16a [16dd-
8FF 8F	16e-] 16a] 16dd-]
.	8e- 8a 8cc
8FF 8F	.
.	16a
=65	=65
8DDn 8Dn	8dn 8f 8a- 8cc
8DD 8D	16d 16f 16a- 16b-
.	[16d [16f [16a- [16cc
8BBB- 8BB-	16d] 16f] 16a-] 16cc]
.	16b-
8BBB- 8BB-	16a-
.	16f
=66	=66
8FF 8F	8dn 8a- 8cc
8FF 8F	16d 16a- 16b-
.	[16d [16a- [16cc
8BBB- 8BB-	16d] 16a-] 16cc]
.	16b-
8BBB- 8BB-	16a-
.	16f
=67	=67
*	*^
8EE- 8E-	8.e-	4dd-
8E- 8G 8d-	.	.
.	32f	.
.	32g	.
*	*v	*v
8GG 8G	16b-
.	8f 8dd-
8E- 8B- 8d-	.
.	16g
=68	=68
8BB- 8B-	16e-
.	16g
8E- 8G 8d-	16f
.	16g
8EE- 8E-	16dd-
.	8d- 8g
8E- 8G 8B-	.
.	[16c [16a-
=69	=69
*>E1	*>E1
8AA- 8A-	2c_ 2a-_
16EE- 16E-	.
[16FF [16F	.
16FF] 16F]	.
16EE- 16E-	.
16FF 16F	.
16GG 16G	.
=70	=70
8AA- 8A-	8c] 8a-]
.	ffq
8r	8ee-
.	fq
4r	8e-
.	16a-
.	16cc
=71:|!	=71:|!
*>E2	*>E2
8AA- 8A-	2c_ 2a-_
8EE- 8E-	.
16FF 16F	.
8EE- 8E-	.
16CC 16C	.
=72	=72
8AAA- 8AA-	8c] 8a-]
8r	8r
8AAA- 8AA-	8a- 8cc 8aa-
8r	8e-
=73!|:	=73!|:
*>F	*>F
8BB- 8B-	16g
.	8b-
8E- 8G 8d-	.
.	16cc
8EE- 8E-	8dd-
8E- 8G 8d-	16gg
.	16ff
=74	=74
8GG 8G	8dd- 8ee-
8E- 8B- 8d-	4dd- 4ee-
8EE- 8E-	.
8E- 8G 8d-	8e-
=75	=75
8AA- 8A-	16a-
.	8cc
8E- 8A- 8c	.
.	16dd-
8EE- 8E-	8ee-
8E- 8A- 8c	16aa-
.	16ff
=76	=76
8AA-	8cc 8ee-
8E- 8A- 8c	4cc 4ee-
8CC	.
8E- 8A- 8c	8cc 8ee-
=77	=77
8DD-	16dd- 16ff
.	8dd- 8ff
8F 8A- 8d-	.
.	[16dd- [16ff
8DD-	16dd-] 16ff]
.	16aa-
8E 8A- 8d-	16bb-
.	16aa-
=78	=78
8AA-	8cc 8ccc
8E- 8A- 8c	[8cc [8ccc
8AAn	16cc] 16ccc]
.	16ee- 16eee-
8F# 8An 8c 8e-	16ddn 16dddn
.	16cc 16ccc
=79	=79
8BB-	16b- 16bb-
.	16gg
8G 8B- 8e-	16ccc
.	16bb-
8BB-	16aa-
.	8ddn
8F 8A- 8B- 8dn	.
.	16bb-
=80	=80
8E- 8G 8B- 8e-	8ee-
16GG 16G	8r
16BB- 16B-	.
8EE- 8E-	8ee- 8gg 8eee-
8r	8e-
=81	=81
8BB- 8B-	16g
.	8b-
8E- 8G 8d-	.
.	16cc
8EE- 8E-	8dd-
8E- 8B- 8d-	16gg
.	16ff
=82	=82
8GG 8G	8dd- 8ee-
8E- 8B- 8d-	4dd- 4ee-
8EE- 8E-	.
8E- 8G 8d-	8e-
=83	=83
8AA- 8A-	16a-
.	8cc
8E- 8A- 8c	.
.	16dd-
8EE- 8E-	8ee-
8E- 8A- 8c	16aa-
.	16ff
=84	=84
8AA-	8cc 8ee-
8E- 8A- 8c	4cc 4ee-
8CC	.
8E- 8A- 8c	8cc 8ee-
=85	=85
8DD-	16dd- 16ff
.	8dd- 8ff
8F 8A- 8d-	.
.	[16bn [16ff
*	*^
8DDn	4b]	16ff]
.	.	16aa-
8F 8A- 8Bn	.	16gg
.	.	16ff
*	*v	*v
=86	=86
8EE-	8cc 8ee-
8E- 8A- 8c	[8cc [8ee-
8EE- 8E-	16cc] 16ee-]
.	16ee-
8EEn 8En	16cc
.	16b-
=87	=87
8FF 8F	8dn 8a-
8FF 8F	8d 8a-
8EE- 8E-	16d- 16g 16b-
.	8d- 8g 8b-
8GG 8G	.
.	16e-
=88	=88
*>F1	*>F1
8AA- 8A-	8c 8a-
8r	16ee-
.	16ee-
4r	8ee-
.	8e-
=89:|!	=89:|!
*>F2	*>F2
8AA- 8A-	4c 4a-
8EE- 8E-	.
8AAA- 8AA-	8a- 8cc 8aa-
8r	8r
==;	==;
*-	*-
